X: 37129
T: Siney Crotty's
R: jig
M: 6/8
K: Gmajor
|:Bdd G2 A|B3 AGE|D2 E G2 A|B3 AGA|
Bdd G2 A|B3 AGE|D2 E G2 A|G3 G2 A:|
|:Bdd d2 B|d2 B dBd|cee e2 c|e2 c ece|
Bdd d2 B|d2 B dBd|egg g2 a|g2 e d2 c:|

